epam-assets/icon-sources/18/social-hot_off.svg

<svg width="18" height="18" viewBox="0 0 18 18" fill="none" xmlns="http://www.w3.org/2000/svg">
<g id="18/social-hot_off">
<g id="icon">
<path fill-rule="evenodd" clip-rule="evenodd" d="M13.4572 14.5177C12.3593 15.7351 10.7694 16.4999 9.00006 16.4999C5.68506 16.4999 3.00006 13.8149 3.00006 10.4999C3.00006 8.6479 3.48444 6.90395 4.33622 5.39677L1.71973 2.78027L2.78039 1.71961L16.2804 15.2196L15.2197 16.2803L13.4572 14.5177ZM8.49111 9.55166C8.48576 9.55276 8.48041 9.55385 8.47506 9.55494C7.15506 9.82494 6.36756 10.6799 6.36756 11.8949C6.36756 13.1999 7.44756 14.2499 8.78256 14.2499C9.9821 14.2499 11.045 13.6626 11.6993 12.7599L8.49111 9.55166Z" fill="#6C6F80"/>
<path d="M15.0001 10.4999C15.0001 11.0892 14.9152 11.6585 14.7571 12.1963L12.348 9.78724C12.2883 9.04495 12.1513 8.31875 11.9401 7.61994C11.6963 7.94734 11.3909 8.23514 11.0449 8.48408L9.21959 6.65882C10.129 6.22286 10.6801 5.24225 10.6801 4.10244C10.6801 2.48994 10.1251 0.502441 10.1251 0.502441C13.0576 2.84994 15.0001 6.45744 15.0001 10.4999Z" fill="#6C6F80"/>
</g>
</g>
</svg>

<svg xmlns="http://www.w3.org/2000/svg" width="18" height="18" fill="none" viewBox="0 0 18 18">
  <path fill="#6C6F80" fill-rule="evenodd" d="M13.457 14.518A5.984 5.984 0 0 1 9 16.5c-3.315 0-6-2.685-6-6 0-1.852.484-3.596 1.336-5.103L1.72 2.78l1.06-1.06 13.5 13.5-1.06 1.06-1.763-1.762ZM8.491 9.552a9.13 9.13 0 0 1-.016.003c-1.32.27-2.107 1.125-2.107 2.34 0 1.305 1.08 2.355 2.415 2.355 1.2 0 2.262-.587 2.916-1.49L8.491 9.552Z" clip-rule="evenodd"/>
  <path fill="#6C6F80" d="M15 10.5c0 .59-.085 1.159-.243 1.696l-2.409-2.409a10.36 10.36 0 0 0-.408-2.167c-.244.327-.55.615-.895.864L9.22 6.66c.909-.436 1.46-1.417 1.46-2.557 0-1.612-.555-3.6-.555-3.6C13.058 2.85 15 6.457 15 10.5Z"/>
</svg>
